src/assets/outline/ConvertCard.svg

<svg width="24" height="24" viewBox="0 0 24 24"  xmlns="http://www.w3.org/2000/svg">
<path d="M22 6.31H12C11.59 6.31 11.25 5.97 11.25 5.56C11.25 5.15 11.59 4.81 12 4.81H22C22.41 4.81 22.75 5.15 22.75 5.56C22.75 5.98 22.41 6.31 22 6.31Z" />
<path d="M19.7798 11.25H14.2298C12.0398 11.25 11.2598 10.48 11.2598 8.3V4.2C11.2598 2.02 12.0398 1.25 14.2298 1.25H19.7798C21.9698 1.25 22.7498 2.02 22.7498 4.2V8.31C22.7498 10.48 21.9698 11.25 19.7798 11.25ZM14.2198 2.75C12.8598 2.75 12.7498 2.86 12.7498 4.2V8.31C12.7498 9.65 12.8598 9.76 14.2198 9.76H19.7697C21.1297 9.76 21.2397 9.65 21.2397 8.31V4.2C21.2397 2.86 21.1297 2.75 19.7697 2.75H14.2198Z" />
<path d="M12 17.81H2C1.59 17.81 1.25 17.47 1.25 17.06C1.25 16.65 1.59 16.31 2 16.31H12C12.41 16.31 12.75 16.65 12.75 17.06C12.75 17.48 12.41 17.81 12 17.81Z" />
<path d="M9.77975 22.75H4.22977C2.03977 22.75 1.25977 21.98 1.25977 19.8V15.7C1.25977 13.52 2.03977 12.75 4.22977 12.75H9.77975C11.9698 12.75 12.7498 13.52 12.7498 15.7V19.81C12.7498 21.98 11.9698 22.75 9.77975 22.75ZM4.21976 14.25C2.85976 14.25 2.74976 14.36 2.74976 15.7V19.81C2.74976 21.15 2.85976 21.26 4.21976 21.26H9.76974C11.1297 21.26 11.2397 21.15 11.2397 19.81V15.7C11.2397 14.36 11.1297 14.25 9.76974 14.25H4.21976Z" />
<path d="M15.0002 22.75C14.7302 22.75 14.4802 22.6 14.3502 22.37C14.2202 22.13 14.2202 21.85 14.3602 21.61L15.4102 19.86C15.6202 19.51 16.0802 19.39 16.4402 19.6C16.8002 19.81 16.9102 20.27 16.7002 20.63L16.4302 21.08C19.1902 20.43 21.2602 17.95 21.2602 14.99C21.2602 14.58 21.6002 14.24 22.0102 14.24C22.4202 14.24 22.7602 14.58 22.7602 14.99C22.7502 19.27 19.2702 22.75 15.0002 22.75Z" />
<path d="M2 9.75C1.59 9.75 1.25 9.41 1.25 9C1.25 4.73 4.73 1.25 9 1.25C9.27 1.25 9.51999 1.4 9.64999 1.63C9.77999 1.87 9.78001 2.15 9.64001 2.39L8.59 4.14C8.38 4.49 7.92 4.61 7.56 4.4C7.2 4.19 7.08999 3.73 7.29999 3.37L7.57001 2.92C4.81001 3.57 2.73999 6.05 2.73999 9.01C2.74999 9.41 2.41 9.75 2 9.75Z" />
</svg>

<?xml version="1.0" encoding="UTF-8"?>
<svg width="24" height="24" viewBox="0 0 24 24" xmlns="http://www.w3.org/2000/svg">
 <path d="m22 6.31h-10c-0.41 0-0.75-0.34-0.75-0.75s0.34-0.75 0.75-0.75h10c0.41 0 0.75 0.34 0.75 0.75 0 0.42-0.34 0.75-0.75 0.75z"/>
 <path d="m19.78 11.25h-5.55c-2.19 0-2.97-0.77-2.97-2.95v-4.1c0-2.18 0.78-2.95 2.97-2.95h5.55c2.19 0 2.97 0.77 2.97 2.95v4.11c0 2.17-0.78 2.94-2.97 2.94zm-5.56-8.5c-1.36 0-1.47 0.11-1.47 1.45v4.11c0 1.34 0.11 1.45 1.47 1.45h5.5499c1.36 0 1.47-0.11 1.47-1.45v-4.11c0-1.34-0.11-1.45-1.47-1.45h-5.5499z"/>
 <path d="m12 17.81h-10c-0.41 0-0.75-0.34-0.75-0.75s0.34-0.75 0.75-0.75h10c0.41 0 0.75 0.34 0.75 0.75 0 0.42-0.34 0.75-0.75 0.75z"/>
 <path d="m9.7798 22.75h-5.55c-2.19 0-2.97-0.77-2.97-2.95v-4.1c0-2.18 0.78-2.95 2.97-2.95h5.55c2.19 0 2.97 0.77 2.97 2.95v4.11c0 2.17-0.78 2.94-2.97 2.94zm-5.56-8.5c-1.36 0-1.47 0.11-1.47 1.45v4.11c0 1.34 0.11 1.45 1.47 1.45h5.55c1.36 0 1.47-0.11 1.47-1.45v-4.11c0-1.34-0.11-1.45-1.47-1.45h-5.55z"/>
 <path d="m15 22.75c-0.27 0-0.52-0.15-0.65-0.38-0.13-0.24-0.13-0.52 0.01-0.76l1.05-1.75c0.21-0.35 0.67-0.47 1.03-0.26s0.47 0.67 0.26 1.03l-0.27 0.45c2.76-0.65 4.83-3.13 4.83-6.09 0-0.41 0.34-0.75 0.75-0.75s0.75 0.34 0.75 0.75c-0.01 4.28-3.49 7.76-7.76 7.76z"/>
 <path d="m2 9.75c-0.41 0-0.75-0.34-0.75-0.75 0-4.27 3.48-7.75 7.75-7.75 0.27 0 0.51999 0.15 0.64999 0.38 0.13 0.24 0.13002 0.52-0.00998 0.76l-1.05 1.75c-0.21 0.35-0.67 0.47-1.03 0.26s-0.47001-0.67-0.26001-1.03l0.27002-0.45c-2.76 0.65-4.83 3.13-4.83 6.09 0.01 0.4-0.32999 0.74-0.73999 0.74z"/>
</svg>
